static/Icons/arrow-square-down.svg

<svg width="24" height="24" viewBox="0 0 24 24" fill="none" xmlns="http://www.w3.org/2000/svg">
<path opacity="0.4" d="M16.19 2H7.81C4.17 2 2 4.17 2 7.81V16.18C2 19.83 4.17 22 7.81 22H16.18C19.82 22 21.99 19.83 21.99 16.19V7.81C22 4.17 19.83 2 16.19 2Z" fill="#292D32"/>
<path d="M12.0002 14.9098C11.8102 14.9098 11.6202 14.8398 11.4702 14.6898L7.94016 11.1598C7.65016 10.8698 7.65016 10.3898 7.94016 10.0998C8.23016 9.80982 8.71016 9.80982 9.00016 10.0998L12.0002 13.0998L15.0002 10.0998C15.2902 9.80982 15.7702 9.80982 16.0602 10.0998C16.3502 10.3898 16.3502 10.8698 16.0602 11.1598L12.5302 14.6898C12.3802 14.8398 12.1902 14.9098 12.0002 14.9098Z" fill="#292D32"/>
</svg>

<svg fill="none" height="24" viewBox="0 0 24 24" width="24" xmlns="http://www.w3.org/2000/svg"><g fill="#292d32"><path d="m16.19 2h-8.38c-3.64 0-5.81 2.17-5.81 5.81v8.37c0 3.65 2.17 5.82 5.81 5.82h8.37c3.64 0 5.81-2.17 5.81-5.81v-8.38c.01-3.64-2.16-5.81-5.8-5.81z" opacity=".4"/><path d="m12.0002 14.9098c-.19 0-.38-.07-.53-.22l-3.53004-3.53c-.29-.29-.29-.77 0-1.06.29-.28998.77-.28998 1.06 0l3.00004 3 3-3c.29-.28998.77-.28998 1.06 0 .29.29.29.77 0 1.06l-3.53 3.53c-.15.15-.34.22-.53.22z"/></g></svg>
